src/Resource_Files/fluent/format-text-subscript.svg

<svg clip-rule="evenodd" fill-rule="evenodd" stroke-linejoin="round" stroke-miterlimit="2" viewBox="0 0 16 16" xmlns="http://www.w3.org/2000/svg"><g fill="#1abc9c" fill-rule="nonzero" transform="translate(-2.28589 -2)"><path d="m13.54 4.12c.21.18.234.496.054.705l-4.435 5.175 4.085 4.766c-.187.294-.341.637-.425 1.041l-4.319-5.039-4.334 5.057c-.18.21-.496.234-.705.054-.21-.179-.234-.495-.055-.705l4.436-5.174-4.436-5.175c-.179-.209-.155-.525.055-.705.209-.18.525-.155.705.054l4.334 5.057 4.335-5.057c.18-.209.495-.234.705-.054z"/><path d="m15.585 12c-.465 0-.835.421-.835.864 0 .276-.224.5-.5.5s-.5-.224-.5-.5c0-.921.747-1.864 1.835-1.864.635 0 1.247.297 1.59.824.358.55.37 1.267-.046 1.975-.212.36-.503.633-.785.856-.142.112-.288.216-.425.314l-.06.042c-.118.083-.228.16-.335.241-.322.243-.555.466-.677.748h2.096c.276 0 .5.224.5.5s-.224.5-.5.5h-2.642c-.008 0-.017 0-.025-.001-.009.001-.017.001-.026.001-.276 0-.5-.224-.5-.5 0-1.037.607-1.621 1.173-2.047.12-.091.244-.178.361-.261l.057-.04c.137-.097.264-.188.383-.282.239-.188.421-.37.543-.578.252-.428.192-.734.07-.923-.138-.211-.416-.369-.752-.369z"/></g></svg>

<?xml version="1.0" encoding="UTF-8" standalone="no"?>
<!DOCTYPE svg PUBLIC "-//W3C//DTD SVG 1.1//EN" "http://www.w3.org/Graphics/SVG/1.1/DTD/svg11.dtd">
<svg width="100%" height="100%" viewBox="0 0 16 16" version="1.1" xmlns="http://www.w3.org/2000/svg" xmlns:xlink="http://www.w3.org/1999/xlink" xml:space="preserve" xmlns:serif="http://www.serif.com/" style="fill-rule:evenodd;clip-rule:evenodd;stroke-linejoin:round;stroke-miterlimit:2;">
    <g transform="matrix(1,0,0,1,-2.28589,-2)">
        <path d="M13.54,4.12C13.75,4.3 13.774,4.616 13.594,4.825L9.159,10L13.244,14.766C13.057,15.06 12.903,15.403 12.819,15.807L8.5,10.768L4.166,15.825C3.986,16.035 3.67,16.059 3.461,15.879C3.251,15.7 3.227,15.384 3.406,15.174L7.842,10L3.406,4.825C3.227,4.616 3.251,4.3 3.461,4.12C3.67,3.94 3.986,3.965 4.166,4.174L8.5,9.231L12.835,4.174C13.015,3.965 13.33,3.94 13.54,4.12Z" style="fill:rgb(26,188,156);fill-rule:nonzero;"/>
    </g>
    <g transform="matrix(1,0,0,1,-2.28589,-2)">
        <path d="M15.585,12C15.12,12 14.75,12.421 14.75,12.864C14.75,13.14 14.526,13.364 14.25,13.364C13.974,13.364 13.75,13.14 13.75,12.864C13.75,11.943 14.497,11 15.585,11C16.22,11 16.832,11.297 17.175,11.824C17.533,12.374 17.545,13.091 17.129,13.799C16.917,14.159 16.626,14.432 16.344,14.655C16.202,14.767 16.056,14.871 15.919,14.969L15.859,15.011C15.741,15.094 15.631,15.171 15.524,15.252C15.202,15.495 14.969,15.718 14.847,16L16.943,16C17.219,16 17.443,16.224 17.443,16.5C17.443,16.776 17.219,17 16.943,17L14.301,17C14.293,17 14.284,17 14.276,16.999C14.267,17 14.259,17 14.25,17C13.974,17 13.75,16.776 13.75,16.5C13.75,15.463 14.357,14.879 14.923,14.453C15.043,14.362 15.167,14.275 15.284,14.192L15.341,14.152C15.478,14.055 15.605,13.964 15.724,13.87C15.963,13.682 16.145,13.5 16.267,13.292C16.519,12.864 16.459,12.558 16.337,12.369C16.199,12.158 15.921,12 15.585,12Z" style="fill:rgb(26,188,156);fill-rule:nonzero;"/>
    </g>
</svg>
